**kern	**kern
*staff2	*staff1
*clefF4	*clefG2
*k[]	*k[]
*M2/4	*M2/4
*C:	*C:
=-	=-
8r	8g 8ee
=306	=306
8CL	4g 4ee
8c	.
8c	8r
8cJ	8e 8cc
=307	=307
8CL	4a 4ff
8c	.
8c	8r
8cJ	8g 8ee
=308	=308
8gL	4ee
8c	.
8f	8.ddL
8cJ	.
.	32ccLL
.	32ddJJJ
=309	=309
8eL	4cc
8c	.
8c	8r
8cJ	8cc
=310	=310
8BL	4dd
8G	.
8c	8.eeL
8GJ	.
.	32ddLL
.	32eeJJJ
=311	=311
8AL	4ff
8c	.
8G	8r
8cJ	8ee
=312	=312
8FL	(8ddL
8c	8ccJ)
8G	8dd'L
8BJ	8ee'J
=313	=313
8r	4cc
8CL	.
8cJ	8r
=	=
*-	*-
